packages/bezier-icons/icons/volume-off.svg

<svg width="24" height="24" viewBox="0 0 24 24" fill="none" xmlns="http://www.w3.org/2000/svg">
<path fill-rule="evenodd" clip-rule="evenodd" d="M9.76819 7.64705L13.0002 10.8791V4.41405L9.76819 7.64705ZM21.5458 19.4246C21.9365 19.8153 21.9362 20.4488 21.5455 20.8392C21.1549 21.2295 20.5218 21.2296 20.1313 20.8391L3.16117 3.86801C2.77071 3.47754 2.77072 2.84447 3.16119 2.45401C3.55166 2.06354 4.18473 2.06354 4.57521 2.45401L8.3542 6.233L12.2932 2.293C12.4802 2.106 12.7352 2 13.0002 2H14.0002C14.5522 2 15.0002 2.448 15.0002 3V12.879L21.5458 19.4246ZM8.7072 15.2931L13.0002 19.5861V15.1211L15.0002 17.1211V21.0001C15.0002 21.5521 14.5522 22.0001 14.0002 22.0001H13.0002C12.7352 22.0001 12.4802 21.8951 12.2932 21.7071L7.5862 17.0001H3.0002C2.4482 17.0001 2.0002 16.5521 2.0002 16.0001V8.00005C2.0002 7.44805 2.4482 7.00005 3.0002 7.00005H4.8792L6.8792 9.00005H4.0002V15.0001H8.0002C8.2652 15.0001 8.5202 15.1061 8.7072 15.2931Z" fill="#313234"/>
</svg>

<svg xmlns="http://www.w3.org/2000/svg" width="24" height="24" fill="none" viewBox="0 0 24 24"><path fill="#313234" fill-rule="evenodd" d="M9.768 7.647 13 10.879V4.414zm11.778 11.778a1 1 0 0 1-1.415 1.414L3.161 3.868a1 1 0 0 1 1.414-1.414l3.78 3.779 3.938-3.94C12.48 2.106 12.735 2 13 2h1a1 1 0 0 1 1 1v9.879zM8.707 15.293 13 19.586v-4.465l2 2v3.88a1 1 0 0 1-1 1h-1a1 1 0 0 1-.707-.294L7.586 17H3a1 1 0 0 1-1-1V8a1 1 0 0 1 1-1h1.88l2 2H4v6h4c.265 0 .52.106.707.293" clip-rule="evenodd"/></svg>
